!!!COM: Palestrina, Giovanni Perluigi da
!!!OPR: Missa Ad fugam
!!!OMD: Sanctus
!!!OTL: Pleni
**kern	**kern	**kern
*Ibass	*Itenor	*Icalto
!Bassus	!Tenor	!Altus
*clefF4	*clefGv2	*clefG2
*k[]	*k[]	*k[]
*G:mix	*G:mix	*G:mix
*M4/2	*M4/2	*M4/2
=20	=20	=20
1G	1r	0r
1A	1c	.
=21	=21	=21
1B	1d	1r
1c	1e	1g
=22	=22	=22
2A	1f	1a
4d	.	.
4c	.	.
4B	2d	1b
4A	.	.
2G	4g	.
.	4f	.
=23	=23	=23
1A	4e	1cc
.	4d	.
.	2c	.
1D	1d	2a
.	.	4dd
.	.	4cc
=24	=24	=24
2r	1G	4b
.	.	4a
1G	.	2g
.	2r	1a
2F#	[2c	.
=25	=25	=25
1G	2c]	1d
.	2B	.
2F	1c	2r
2E	.	[2g
=26	=26	=26
1D	2B	2g]
.	2A	2f#
2r	1G	1g
2G	.	.
=27	=27	=27
2A	2r	2f
2c	2c	2e
4B	2d	1d
4c	.	.
4d	2f	.
8c	.	.
8B	.	.
=28	=28	=28
2c	4e	2r
.	4f	.
2B	4g	2g
.	8f	.
.	8e	.
1A	2f	2a
.	2e	2cc
=29	=29	=29
2r	1d	4b
.	.	4cc
2D	.	4dd
.	.	8cc
.	.	8b
2E	2r	2cc
2G	2G	2b
=30	=30	=30
4F	2A	1a
4G	.	.
4A	2c	.
8G	.	.
8F	.	.
2G	4B	2r
.	4c	.
2F	4d	2d
.	8c	.
.	8B	.
=31	=31	=31
1E	2c	2e
.	2B	2g
2r	1A	4f
.	.	4g
2A	.	4a
.	.	8g
.	.	8f
=32	=32	=32
2B	2r	2g
2d	2d	2f
2.c	2e	1e
.	2g	.
4B	.	.
=33	=33	=33
4A	2.f	2r
4G	.	.
2F	.	2a
.	4e	.
1G	4d	2b
.	4c	.
.	2B	2dd
=34	=34	=34
1A	1c	2.cc
.	.	4b
1D	1d	4a
.	.	4g
.	.	2f
=35	=35	=35
2r	1G	1g
1G	.	.
.	2r	1a
2F#	[2c	.
=36	=36	=36
2G	2c]	1d
2D	2B	.
1E	2c	2r
.	2G	[2g
=37	=37	=37
1D	1A	2g]
.	.	2f#
1G	[1G	2g
.	.	2d
=38	=38	=38
2C	0G]	1e
1c	.	.
.	.	1d
4B	.	.
4A	.	.
=39	=39	=39
[0B	[0G	[0d
=40	=40	=40
0B]	0G]	0d]
*-	*-	*-
!!!CDT: 1525/^1526/-1594/2/2
!!!OCY: Italia
!!!AGN: Mass (Canonic)
!!!AST: renaissance, vocal
!!!ASW: Motet (Maffoni)
!!!PWK: Masses, Book 2
!!!RNB: Cadence finals: C
!!!YOR: Le Opere Complete, v. 4, p. 74
!!!YOO: Rome, Italy: Fratelli Scalera
!!!END: 1992//
!!!EED: John Miller
!!!YEC: Copyright 2000, John Miller
!!!YEN: United States of America
!!!YEM: Rights to all derivative electronic formats reserved.
!!!YEM: Refer to licensing agreement for further details.
!!!YEM: This file must be accompanied by the licensing agreement.
!!!YEM: A copy of the licensing agreement may be found at http://www.music-cog.ohio-state.edu/HumdrumDatabases/Palestrina/license.txt
!!!EMD: converted to Humdrum by Bret Aarden
